!!!OTL: Muede kehrt ein Wandersmann zurueck nach der Heimat stiller Liebe Glueck
!!!ARE: Europa, Mitteleuropa, Schweiz, Kt. Aargau, Wohlen - Zufikon
!!!SCT: D1004
!!!YEM: Copyright 1995, estate of Helmut Schaffrath.
**kern
*ICvox
*Ivox
*M4/4
*k[f#]
*G:
{8d
8d
=1
4.b
8a
8.g
16f#
8.g
16a
=2
2d
4r}
{8.f#
16g
=3
4.a
8g
8f#
8a
8ee
8dd
=4
2b
4r}
{8.g
16a
=5
8b
8dd
4dd
8.cc
16b
8a
8g
=6
2e
4r}
{8.g
16e
=7
4d
4g
8f#
8a
8ee
8dd
=8
2b
4r}
{8.g
16a
=9
8b
8dd
4dd
8.cc
16b
8a
8g
=10
2cc
4r}
{8cc
8a
=11
4.dd
8cc
8d
8cc
8b
8a
=12
2g
4r}
==
!!!AGN: Liebes - Lied
!! DVA-Signatur A 24 689
!!!ONB: ESAC (Essen Associative Code) Database: DVA
!!!AMT: simple quadruple
!!!AIN: vox
!!!EED: Helmut Schaffrath
!!!EEV: 1.0
*-
